local/share/icons/dracula-icons-main/22/actions/fingerprint.svg

<svg width="22" height="22" version="1.1" viewBox="0 0 5.8208334 5.8208334" xmlns="http://www.w3.org/2000/svg">
    <defs id="defs3051">
        <style type="text/css" id="current-color-scheme">
            .ColorScheme-Text {
                color:#FFFFFF;
            }
        </style>
    </defs>
    <g class="ColorScheme-Text" fill="currentColor">
        <path d="m2.9012633 0.79295855c-0.4192293-0.00191437-0.7786751 0.07589339-1.1055502 0.23955605-0.1088181 0.0544815-0.1257571 0.0735915-0.1187128 0.1324105 0.014386 0.1200452 0.07637 0.1316991 0.2599505 0.049311 0.3412864-0.1531581 0.5073425-0.1858198 0.9378304-0.1862874 0.4940631-4.051e-4 0.6760099 0.041914 1.0811988 0.251732 0.069616 0.035999 0.2900111 0.206128 0.372271 0.1147557 0.0814698-0.0814651 0.0384245-0.1488917-0.1713724-0.268169-0.4137465-0.2352298-0.7752529-0.3310333-1.2556153-0.33330885zm-0.0127845 0.48520005c-0.5531409-4.208e-4 -1.1059383 0.2181208-1.5113041 0.6559638-0.1568148 0.1693808-0.3397009 0.4469991-0.3397009 0.5156394 0 0.080034 0.033001 0.1241918 0.092839 0.1241918 0.046904 0 0.094631-0.050603 0.2082037-0.2212928 0.2540066-0.3817446 0.5832979-0.6349962 1.0075361-0.7749808 0.3290133-0.1073859 0.7142948-0.094954 1.0845472 0 0.4780621 0.1571372 0.888186 0.5072015 1.1128556 0.950006 0.048889 0.09635 0.078132 0.1257138 0.1260182 0.1257138 0.08247 0 0.1308913-0.061372 0.1083635-0.137585-0.0363248-0.1229271-0.2301129-0.4207796-0.3768365-0.5792573-0.40593-0.4384603-0.9593809-0.6579804-1.5125218-0.6583989zm0.026178 0.4818519c-0.1178973-0.00205-0.2375196 0.00911-0.3570516 0.034092-0.5680071 0.1187317-1.0427629 0.578744-1.194737 1.1576011-0.08065 0.3071821-0.043576 0.8089355 0.089491 1.2102611 0.039768 0.1199347 0.058967 0.1449479 0.1159732 0.1515869 0.131064 0.015232 0.1438716-0.047147 0.065444-0.3183935-0.224414-0.7761475-0.0312105-1.4364719 0.5253801-1.7965193 0.5502901-0.355972 1.3071109-0.250623 1.7377716 0.2416868 0.2698705 0.3085052 0.4178955 0.8303362 0.3001301 1.0580653-0.0777949 0.1504437-0.2672112 0.240861-0.4227999 0.2018117-0.1137008-0.0285359-0.2484815-0.1682678-0.2657338-0.2754744-0.0608853-0.3783192-0.1468233-0.5263727-0.3643568-0.6276555-0.1855624-0.0864009-0.3402348-0.0840157-0.5223359 0.0082179-0.1696769 0.0859442-0.2996775 0.2594076-0.3260034 0.4349756-0.0095 0.063267-0.00532 0.2001783 0.00944 0.3040872 0.091798 0.6472529 0.5548822 1.1592849 1.19078 1.3167979 0.079972 0.019801 0.2107219 0.033791 0.290694 0.031048l0.145499-0.00487c0.082186-0.041719 0.086684-0.1377375 0-0.1850701l-0.205772-0.0313526c-0.258986-0.0394655-0.3662344-0.0735907-0.5442523-0.1738075-0.3871245-0.2179339-0.6644869-0.6903682-0.6644869-1.1317281 0-0.194502 0.073643-0.3081161 0.2453397-0.3792719 0.1240617-0.051418 0.125844-0.051418 0.2499056 0 0.157008 0.06507 0.2325863 0.1739677 0.2520361 0.3625303 0.035717 0.3460586 0.2758617 0.5737784 0.6051306 0.5737784 0.2642536 0 0.486683-0.1714825 0.5655595-0.4358888 0.0771995-0.2587646-0.0264376-0.6933876-0.2441221-1.0239734-0.288494-0.4381176-0.7660364-0.6936603-1.2769228-0.7025351zm-0.0170461 0.5013329c-0.1645384 0.0020794-0.3337447 0.0324429-0.4724157 0.0864471-0.2138163 0.1047178-0.4175584 0.3138473-0.5229447 0.5363382-0.0801918 0.1692919-0.0849751 0.1956567-0.0849253 0.4830694 5.93e-5 0.353603 0.042851 0.5414471 0.1951151 0.8589932 0.1312026 0.2736184 0.3129776 0.5122594 0.5150305 0.6757492 0.1751346 0.1417099 0.1937396 0.1485872 0.266647 0.095275 0.0746389-0.0545739 0.0330087-0.1482917-0.1177996-0.2639079-0.1635148-0.1253584-0.3401231-0.3521126-0.4593269-0.5899109-0.1958003-0.3905891-0.2451288-0.8733242-0.1174951-1.1496873 0.0926311-0.2005735 0.2338803-0.3501888 0.4139724-0.4386282 0.2163739-0.1062575 0.5324294-0.1062575 0.7488033 0 0.2582565 0.1268233 0.4233853 0.357751 0.4818518 0.6745318 0.034898 0.189091 0.087725 0.2519437 0.1683286 0.1999855 0.037349-0.024076 0.045481-0.064194 0.042006-0.208204-0.008444-0.3500731-0.2537173-0.701555-0.6121315-0.877561-0.1203149-0.0585429-0.2801775-0.0845714-0.4447159-0.0824901z"/>
        <path d="m3.6281734 4.3884441c-0.4517456-0.0985429-0.7999392-0.4965551-0.8390321-0.9590776-0.01236-0.1461812-0.00807-0.1655002 0.042539-0.1925945 0.096421-0.051602 0.1521471 0.00258 0.1714333 0.1666535 0.048494 0.4125949 0.3517003 0.7237729 0.7595978 0.7795558 0.199567 0.027293 0.2637501 0.1039135 0.1675947 0.2000689-0.048143 0.048143-0.1017675 0.049101-0.3021325 0.00541z"/>
    </g>
</svg>

<?xml version="1.0" encoding="UTF-8"?>
<svg xmlns="http://www.w3.org/2000/svg" xmlns:xlink="http://www.w3.org/1999/xlink" width="22" height="22" viewBox="0 0 22 22">
<path fill-rule="nonzero" fill="rgb(100%, 100%, 100%)" fill-opacity="1" d="M 2.902344 0.792969 C 2.480469 0.792969 2.121094 0.867188 1.796875 1.03125 C 1.6875 1.085938 1.671875 1.105469 1.675781 1.164062 C 1.691406 1.285156 1.753906 1.296875 1.9375 1.214844 C 2.277344 1.0625 2.445312 1.027344 2.875 1.027344 C 3.367188 1.027344 3.550781 1.070312 3.957031 1.28125 C 4.027344 1.316406 4.246094 1.484375 4.328125 1.394531 C 4.410156 1.3125 4.367188 1.246094 4.15625 1.125 C 3.742188 0.890625 3.382812 0.796875 2.902344 0.792969 Z M 2.886719 1.277344 C 2.335938 1.277344 1.78125 1.496094 1.378906 1.933594 C 1.21875 2.101562 1.039062 2.382812 1.039062 2.449219 C 1.039062 2.53125 1.070312 2.574219 1.128906 2.574219 C 1.175781 2.574219 1.226562 2.523438 1.339844 2.351562 C 1.59375 1.972656 1.921875 1.71875 2.347656 1.578125 C 2.675781 1.46875 3.058594 1.484375 3.429688 1.578125 C 3.910156 1.734375 4.320312 2.085938 4.542969 2.527344 C 4.59375 2.625 4.621094 2.652344 4.667969 2.652344 C 4.75 2.652344 4.800781 2.59375 4.777344 2.515625 C 4.742188 2.394531 4.546875 2.09375 4.402344 1.9375 C 3.996094 1.5 3.441406 1.277344 2.886719 1.277344 Z M 2.914062 1.761719 C 2.796875 1.757812 2.675781 1.769531 2.558594 1.792969 C 1.988281 1.914062 1.515625 2.371094 1.363281 2.953125 C 1.28125 3.257812 1.320312 3.761719 1.453125 4.160156 C 1.492188 4.28125 1.511719 4.308594 1.566406 4.3125 C 1.699219 4.328125 1.710938 4.265625 1.632812 3.996094 C 1.410156 3.21875 1.601562 2.558594 2.160156 2.199219 C 2.710938 1.84375 3.464844 1.949219 3.898438 2.441406 C 4.167969 2.75 4.316406 3.269531 4.195312 3.5 C 4.121094 3.648438 3.929688 3.738281 3.773438 3.699219 C 3.660156 3.671875 3.527344 3.53125 3.507812 3.425781 C 3.449219 3.046875 3.363281 2.898438 3.144531 2.796875 C 2.957031 2.710938 2.804688 2.714844 2.621094 2.804688 C 2.453125 2.890625 2.320312 3.066406 2.296875 3.242188 C 2.285156 3.304688 2.289062 3.441406 2.304688 3.542969 C 2.398438 4.191406 2.859375 4.703125 3.496094 4.859375 C 3.574219 4.882812 3.707031 4.894531 3.785156 4.890625 L 3.933594 4.886719 C 4.015625 4.84375 4.019531 4.75 3.933594 4.703125 L 3.726562 4.671875 C 3.46875 4.632812 3.359375 4.597656 3.183594 4.496094 C 2.796875 4.277344 2.519531 3.808594 2.519531 3.367188 C 2.519531 3.171875 2.589844 3.058594 2.761719 2.984375 C 2.886719 2.933594 2.890625 2.933594 3.011719 2.984375 C 3.171875 3.050781 3.246094 3.160156 3.265625 3.347656 C 3.300781 3.695312 3.539062 3.921875 3.871094 3.921875 C 4.132812 3.921875 4.355469 3.75 4.4375 3.488281 C 4.511719 3.226562 4.410156 2.792969 4.191406 2.460938 C 3.902344 2.023438 3.425781 1.769531 2.914062 1.761719 Z M 2.898438 2.261719 C 2.734375 2.261719 2.5625 2.292969 2.425781 2.347656 C 2.210938 2.453125 2.007812 2.660156 1.902344 2.882812 C 1.820312 3.054688 1.816406 3.078125 1.816406 3.367188 C 1.816406 3.722656 1.859375 3.910156 2.011719 4.226562 C 2.144531 4.5 2.324219 4.738281 2.527344 4.902344 C 2.703125 5.042969 2.722656 5.050781 2.792969 4.996094 C 2.867188 4.941406 2.828125 4.847656 2.675781 4.734375 C 2.511719 4.609375 2.335938 4.382812 2.21875 4.144531 C 2.019531 3.753906 1.972656 3.269531 2.097656 2.992188 C 2.191406 2.792969 2.332031 2.644531 2.511719 2.554688 C 2.730469 2.449219 3.046875 2.449219 3.261719 2.554688 C 3.519531 2.683594 3.6875 2.914062 3.742188 3.230469 C 3.777344 3.417969 3.832031 3.480469 3.914062 3.429688 C 3.949219 3.40625 3.957031 3.367188 3.953125 3.222656 C 3.945312 2.871094 3.699219 2.519531 3.34375 2.34375 C 3.222656 2.285156 3.0625 2.257812 2.898438 2.261719 Z M 2.898438 2.261719 "/>
<path fill-rule="nonzero" fill="rgb(100%, 100%, 100%)" fill-opacity="1" d="M 3.628906 4.386719 C 3.175781 4.289062 2.828125 3.890625 2.789062 3.429688 C 2.777344 3.28125 2.78125 3.265625 2.832031 3.238281 C 2.929688 3.183594 2.984375 3.238281 3.003906 3.402344 C 3.050781 3.816406 3.355469 4.128906 3.761719 4.183594 C 3.960938 4.210938 4.027344 4.285156 3.929688 4.382812 C 3.882812 4.429688 3.828125 4.433594 3.628906 4.386719 Z M 3.628906 4.386719 "/>
</svg>
